dist/img/logo-letters.svg

<svg width="119" height="78" viewBox="0 0 119 78" fill="none" xmlns="http://www.w3.org/2000/svg">
<path d="M15.827 38.6312C15.8989 41.8228 14.9592 44.9576 13.1374 47.6038C11.5294 49.9976 9.09406 51.7419 6.27894 52.5164C4.4358 53.0883 2.46513 53.1371 0.594912 52.657V47.059C1.33021 47.4717 2.14468 47.7309 2.98711 47.8201C3.82955 47.9093 4.6817 47.8267 5.48998 47.5775C6.76266 47.2556 7.88342 46.5139 8.66372 45.4771C9.30115 44.6384 9.69184 43.6445 9.79334 42.6034L4.01071 44.194V39.9494L9.72163 38.3851C9.65981 37.9357 9.48594 37.5081 9.21541 37.1402C8.94489 36.7724 8.58604 36.4755 8.17061 36.276C7.24579 35.8805 6.20393 35.8366 5.24793 36.1529C3.40756 36.6872 1.77975 37.7643 0.585938 39.2376V33.7186C2.24083 32.3093 4.18994 31.2715 6.29686 30.6779C9.106 29.9046 11.3982 30.262 13.1733 31.7501C14.9484 33.2382 15.833 35.5319 15.827 38.6312Z" fill="#F08518"/>
<path d="M35.3678 43.988L29.5583 45.5786V37.3793L23.6142 39.0139V47.2132L17.8047 48.8039V28.0903L23.6142 26.4996V34.242L29.5583 32.6162V24.8563L35.3678 23.2656V43.988Z" fill="#F08518"/>
<path d="M50.1123 39.9401L38.2422 43.2005V22.5133L50.1123 19.2969V24.4555L44.0517 26.1165V28.8056L49.6551 27.2062V32.0836L44.0428 33.6215V36.4249L50.1034 34.764L50.1123 39.9401Z" fill="#F08518"/>
<path d="M67.7602 21.4329C67.8204 23.3973 67.187 25.3219 65.9671 26.8815C64.6316 28.4606 62.8105 29.5736 60.7762 30.054L58.3017 30.7307V37.6997L52.4922 39.2903V18.5943L60.301 16.45C62.7934 15.7646 64.6851 15.9052 65.9761 16.8719C67.1655 17.7682 67.7602 19.2886 67.7602 21.4329ZM61.8161 22.9005C61.8161 21.4182 61.0003 20.8997 59.3686 21.345L58.2928 21.635V26.0818L59.3148 25.8006C60.9824 25.3494 61.8161 24.3828 61.8161 22.9005Z" fill="#F08518"/>
<path d="M81.1723 15.892L75.4345 17.4651V32.9936L69.625 34.5843V13.9059L81.1723 10.7422V15.892Z" fill="#F08518"/>
<path d="M101.236 25.9167L95.4531 27.4985V15.8719L88.4512 29.4231L82.9375 30.9347V10.2211L88.6933 8.63928V20.4593L95.758 6.70591L101.236 5.20312V25.9167Z" fill="#F08518"/>
<path d="M118.726 21.1179L112.943 22.7085V15.4847L112.611 15.5726L109.151 23.7455L102.875 25.5031L107.134 16.6271C104.641 16.4865 103.395 14.8314 103.395 11.6619C103.371 10.5047 103.585 9.35473 104.026 8.28096C104.467 7.2072 105.124 6.23187 105.959 5.41354C107.316 4.04789 109.022 3.06449 110.899 2.56617L118.708 0.421875L118.726 21.1179ZM112.943 11.3455V6.70539L111.751 7.03055C110.071 7.49339 109.231 8.48352 109.231 10.0009C109.231 11.5183 110.071 12.0749 111.751 11.6707L112.943 11.3455Z" fill="#F08518"/>
<path d="M16.6413 67.493C16.6724 69.2313 16.0825 70.9255 14.9737 72.2825C13.5583 73.9134 11.6486 75.0588 9.52283 75.5517L0.960938 77.8981V57.2021L9.14627 54.9611C11.1485 54.4104 12.6786 54.5364 13.7365 55.3391C14.2062 55.7243 14.5749 56.2141 14.812 56.7675C15.0491 57.3209 15.1476 57.922 15.0993 58.5203C15.0903 59.449 14.8584 60.3625 14.4223 61.187C13.9862 62.0115 13.3581 62.7236 12.589 63.2659C13.129 63.2208 13.6727 63.2883 14.1842 63.464C14.6956 63.6397 15.1634 63.9196 15.5565 64.2853C16.3355 65.1725 16.7254 66.3254 16.6413 67.493ZM9.83662 61.1304C9.83662 59.8708 9.13733 59.4314 7.73873 59.8122L6.68978 60.1022V63.8811L7.33528 63.7053C9.00283 63.2483 9.83662 62.39 9.83662 61.1304ZM10.7332 68.7936C10.7332 67.4168 9.97108 66.9393 8.44697 67.3612L6.71667 67.8357V71.7904L8.21389 71.3773C8.88284 71.2169 9.49961 70.8935 10.007 70.437C10.2341 70.2261 10.4136 69.9709 10.5341 69.6879C10.6545 69.4048 10.7132 69.1002 10.7063 68.7936H10.7332Z" fill="#F08518"/>
<path d="M33.8388 62.012C33.8605 63.1212 33.656 64.2235 33.2373 65.2542C32.8185 66.2849 32.1939 67.2233 31.4002 68.0142C29.9729 69.4435 28.1752 70.4643 26.2003 70.967L18.9922 72.9092V52.2572L24.8017 50.6665V58.0749L26.5948 57.5827C28.1388 57.0536 29.8203 57.0536 31.3644 57.5827C33.014 58.2682 33.8388 59.7446 33.8388 62.012ZM28.1548 63.7696C28.1548 62.3518 27.3061 61.8743 25.6086 62.3371L24.8017 62.5568V66.8278L25.6086 66.6081C27.3001 66.1218 28.1458 65.1727 28.1458 63.7608L28.1548 63.7696ZM40.7959 66.9772L34.9774 68.5151V47.8719L40.7869 46.2812L40.7959 66.9772Z" fill="#F08518"/>
<path d="M58.0242 61.7376C56.6156 62.7944 55.0285 63.6005 53.3354 64.1192C50.3828 64.9277 47.9502 64.5703 46.0376 63.047C44.125 61.5237 43.1776 59.1627 43.1956 55.9638C43.178 52.7494 44.2714 49.624 46.2976 47.0966C48.0191 44.7641 50.4818 43.0578 53.2995 42.2456C54.8381 41.798 56.4684 41.7466 58.0332 42.0962V48.5115C57.4535 48.0366 56.758 47.7174 56.0147 47.5849C55.2714 47.4525 54.5057 47.5113 53.7926 47.7557C52.3863 48.1534 51.1854 49.0575 50.4306 50.2867C49.6158 51.5152 49.1886 52.9519 49.2024 54.4171C49.1536 55.0373 49.2448 55.6604 49.4695 56.2421C49.6942 56.8238 50.0468 57.3499 50.5023 57.7829C50.9519 58.1519 51.4928 58.3982 52.0704 58.497C52.6481 58.5957 53.2421 58.5434 53.7926 58.3454C55.5217 57.8664 57.0232 56.8053 58.0332 55.3486L58.0242 61.7376Z" fill="#F08518"/>
<path d="M81.0352 45.5784C81.0531 48.6122 80.086 51.573 78.2739 54.0325C76.4214 56.6719 73.6732 58.581 70.5189 59.4197C67.2973 60.3043 64.7063 59.9294 62.7459 58.2948C60.905 56.7539 59.9846 54.4427 59.9846 51.361C59.9686 48.3301 60.9355 45.3727 62.7459 42.9156C64.6057 40.2756 67.3596 38.367 70.5189 37.5285C73.7404 36.6438 76.3254 37.0188 78.2739 38.6534C80.1148 40.1884 81.0352 42.4967 81.0352 45.5784ZM74.9926 47.2394C75.0404 46.6237 74.9478 46.0054 74.7214 45.4293C74.4949 44.8532 74.1404 44.3337 73.6836 43.9087C73.252 43.5557 72.7339 43.319 72.1806 43.2219C71.6272 43.1248 71.0576 43.1707 70.5278 43.355C69.2328 43.7304 68.1129 44.5389 67.3631 45.6399C66.4909 46.8269 66.0263 48.2548 66.0362 49.7176C65.9879 50.3374 66.082 50.96 66.3116 51.5395C66.5412 52.1189 66.9006 52.6405 67.3631 53.0659C67.797 53.4181 68.3165 53.6542 68.8711 53.7512C69.4257 53.8482 69.9964 53.8028 70.5278 53.6195C71.8217 53.2464 72.9394 52.4371 73.6836 51.3346C74.553 50.1407 75.0115 48.7061 74.9926 47.2394Z" fill="#F08518"/>
<path d="M95.0335 36.6557L91.017 37.7542V53.1773L85.2074 54.768V39.3536L81.1641 40.4609V35.1881L95.0335 31.3828V36.6557Z" fill="#F08518"/>
<path d="M111.756 40.6291C111.778 41.7384 111.573 42.8407 111.155 43.8714C110.736 44.9022 110.111 45.8405 109.317 46.6314C107.89 48.06 106.092 49.0807 104.118 49.5842L96.9453 51.5615V30.8744L102.755 29.2837V36.6921L104.548 36.2087C106.091 35.6754 107.774 35.6754 109.317 36.2087C110.943 36.8883 111.756 38.3618 111.756 40.6291ZM106.072 42.3868C106.072 40.9689 105.223 40.4915 103.526 40.9543L102.719 41.174V45.445L103.526 45.2253C105.217 44.7566 106.063 43.8075 106.063 42.378L106.072 42.3868ZM118.713 45.5944L112.904 47.1851V26.4891L118.713 24.8984V45.5944Z" fill="#F08518"/>
</svg>

<svg width="119" height="78" fill="none" xmlns="http://www.w3.org/2000/svg"><path d="M15.827 38.631a15.211 15.211 0 01-2.69 8.973 12.127 12.127 0 01-6.858 4.912 10.437 10.437 0 01-5.684.141v-5.598a6.26 6.26 0 004.895.519 5.726 5.726 0 003.174-2.1 5.655 5.655 0 001.13-2.875L4.01 44.194v-4.245l5.71-1.564a2.73 2.73 0 00-.506-1.245 2.801 2.801 0 00-1.044-.864 4.137 4.137 0 00-2.923-.123 9.352 9.352 0 00-4.662 3.085v-5.52a15.14 15.14 0 015.71-3.04c2.81-.773 5.102-.416 6.877 1.072 1.775 1.488 2.66 3.782 2.654 6.881zm19.541 5.357l-5.81 1.59V37.38l-5.944 1.635v8.2l-5.81 1.59V28.09l5.81-1.59v7.742l5.944-1.626v-7.76l5.81-1.59v20.722zm14.744-4.048l-11.87 3.26V22.513l11.87-3.216v5.159l-6.06 1.66v2.69l5.603-1.6v4.878l-5.612 1.537v2.804l6.06-1.661.01 5.176zM67.76 21.433a8.421 8.421 0 01-1.793 5.448 9.72 9.72 0 01-5.19 3.173l-2.475.677V37.7l-5.81 1.59V18.594l7.809-2.144c2.492-.685 4.384-.545 5.675.422 1.19.896 1.784 2.417 1.784 4.56zM61.816 22.9c0-1.483-.816-2.001-2.447-1.556l-1.076.29v4.447l1.022-.281c1.667-.452 2.501-1.418 2.501-2.9zm19.356-7.008l-5.737 1.573v15.529l-5.81 1.59V13.906l11.547-3.164v5.15zm20.064 10.025l-5.783 1.581V15.873l-7.002 13.551-5.513 1.512V10.22l5.755-1.582v11.82l7.065-13.753 5.478-1.503v20.714zm17.49-4.799l-5.783 1.59v-7.223l-.332.088-3.46 8.172-6.276 1.758 4.259-8.876c-2.493-.14-3.739-1.796-3.739-4.965a8.435 8.435 0 01.631-3.381 8.579 8.579 0 011.933-2.867 10.907 10.907 0 014.94-2.848l7.809-2.144.018 20.696zm-5.783-9.772v-4.64l-1.192.325c-1.68.462-2.52 1.453-2.52 2.97 0 1.517.84 2.074 2.52 1.67l1.192-.325zM16.641 67.493a7.359 7.359 0 01-1.667 4.79 10.291 10.291 0 01-5.451 3.269L.96 77.898V57.202l8.185-2.24c2.002-.552 3.533-.426 4.59.377.47.385.839.875 1.076 1.428a3.69 3.69 0 01.287 1.753 5.822 5.822 0 01-.677 2.667 5.95 5.95 0 01-1.833 2.079 3.91 3.91 0 011.595.198c.512.176.98.456 1.373.821a4.382 4.382 0 011.084 3.208zM9.837 61.13c0-1.26-.7-1.699-2.098-1.318l-1.05.29v3.78l.646-.177c1.668-.457 2.502-1.315 2.502-2.575zm.896 7.664c0-1.377-.762-1.855-2.286-1.433l-1.73.475v3.954l1.497-.413a4.115 4.115 0 001.793-.94 2.177 2.177 0 00.699-1.643h.027zm23.106-6.782a8.187 8.187 0 01-.602 3.242 8.318 8.318 0 01-1.837 2.76 11.278 11.278 0 01-5.2 2.953l-7.208 1.942V52.257l5.81-1.59v7.408l1.793-.492a7.364 7.364 0 014.77 0c1.649.685 2.474 2.162 2.474 4.429zm-5.684 1.758c0-1.418-.849-1.896-2.546-1.433l-.807.22v4.27l.807-.219c1.691-.486 2.537-1.435 2.537-2.847l.009.009zm12.64 3.207l-5.818 1.538V47.872l5.81-1.59.009 20.695zm17.229-5.239a15.262 15.262 0 01-4.689 2.381c-2.952.809-5.385.451-7.297-1.072-1.913-1.523-2.86-3.884-2.842-7.083a14.048 14.048 0 013.102-8.867 13.258 13.258 0 017.002-4.851 9.523 9.523 0 014.733-.15v6.416a4.405 4.405 0 00-2.018-.927 4.45 4.45 0 00-2.222.17 5.787 5.787 0 00-3.362 2.532 7.345 7.345 0 00-1.229 4.13 4.18 4.18 0 00.267 1.825 4.23 4.23 0 001.033 1.54c.45.37.99.616 1.568.715a3.4 3.4 0 001.723-.152 7.634 7.634 0 004.24-2.996l-.009 6.389zm23.011-16.16a14.107 14.107 0 01-2.761 8.454 13.795 13.795 0 01-7.755 5.388c-3.222.884-5.813.51-7.773-1.125-1.841-1.541-2.761-3.852-2.761-6.934-.016-3.03.95-5.988 2.76-8.445a13.84 13.84 0 017.774-5.387c3.221-.885 5.806-.51 7.755 1.124 1.84 1.535 2.761 3.844 2.761 6.925zm-6.042 1.661a4.083 4.083 0 00-.272-1.81 4.154 4.154 0 00-1.037-1.52 3.266 3.266 0 00-1.503-.687 3.298 3.298 0 00-1.653.133 5.767 5.767 0 00-3.165 2.285 6.806 6.806 0 00-1.327 4.078c-.048.62.046 1.242.276 1.821.23.58.589 1.102 1.051 1.527.434.352.954.588 1.508.685a3.326 3.326 0 001.657-.131 5.712 5.712 0 003.156-2.285 6.805 6.805 0 001.309-4.096zm20.041-10.583l-4.017 1.098v15.423l-5.81 1.591V39.354l-4.043 1.107v-5.273l13.87-3.805v5.273zm16.722 3.974a8.193 8.193 0 01-.601 3.241 8.318 8.318 0 01-1.838 2.76 11.29 11.29 0 01-5.199 2.953l-7.173 1.977V30.875l5.81-1.59v7.408l1.793-.483a7.308 7.308 0 014.769 0c1.626.68 2.439 2.153 2.439 4.42zm-5.684 1.757c0-1.418-.849-1.895-2.546-1.433l-.807.22v4.271l.807-.22c1.691-.468 2.537-1.418 2.537-2.847l.009.009zm12.641 3.207l-5.809 1.591V26.49l5.809-1.59v20.695z" fill="#F08518"/></svg>
